X:30
T: Winterrosen
N: Q0145H
O: Mitteleuropa, Deutschland (DDR) , Thueringen
N: Pause am Ende der 2. Zeile ergaenzt.
R: Ballade, Verfuehrung, verlorene Ehre
M: 3/4
L: 1/8
K: G
D | GBd2BG | FAA3
D | GBd2BG | B2A2z
d | dfafdc | Bdg3
B | Ace2dA | c2B2z

@@@ Tune index: 1633
